assets/Baggage claim/Flat/baggage_claim_flat.svg

<svg width="32" height="32" viewBox="0 0 32 32" fill="none" xmlns="http://www.w3.org/2000/svg">
<path d="M2 6C2 3.79086 3.79086 2 6 2H26C28.2091 2 30 3.79086 30 6V26C30 28.2091 28.2091 30 26 30H6C3.79086 30 2 28.2091 2 26V6Z" fill="#00A6ED"/>
<path d="M13.2612 9C13.2538 8.91766 13.25 8.83427 13.25 8.75C13.25 7.23122 14.4812 6 16 6C17.5188 6 18.75 7.23122 18.75 8.75C18.75 8.83427 18.7462 8.91766 18.7388 9H20.75C20.8881 9 21 9.11193 21 9.25V20.75C21 20.8881 20.8881 21 20.75 21H11.25C11.1119 21 11 20.8881 11 20.75V9.25C11 9.11193 11.1119 9 11.25 9H13.2612ZM14.2677 9H17.7323C17.744 8.91835 17.75 8.83488 17.75 8.75C17.75 7.7835 16.9665 7 16 7C15.0335 7 14.25 7.7835 14.25 8.75C14.25 8.83488 14.256 8.91835 14.2677 9Z" fill="white"/>
<path d="M8 9C7.44772 9 7 9.44771 7 10V20C7 20.5523 7.44772 21 8 21H9.75C9.88807 21 10 20.8881 10 20.75V9.25C10 9.11193 9.88807 9 9.75 9H8Z" fill="white"/>
<path d="M22 20.75C22 20.8881 22.1119 21 22.25 21H24C24.5523 21 25 20.5523 25 20V10C25 9.44772 24.5523 9 24 9H22.25C22.1119 9 22 9.11193 22 9.25V20.75Z" fill="white"/>
<path d="M26 23.5C26 23.2239 25.7761 23 25.5 23H6.5C6.22386 23 6 23.2239 6 23.5C6 23.7761 6.22386 24 6.5 24H9C9 24.2652 9.10536 24.5196 9.29289 24.7071C9.48043 24.8946 9.73478 25 10 25C10.2652 25 10.5196 24.8946 10.7071 24.7071C10.8946 24.5196 11 24.2652 11 24H13C13 24.2652 13.1054 24.5196 13.2929 24.7071C13.4804 24.8946 13.7348 25 14 25C14.2652 25 14.5196 24.8946 14.7071 24.7071C14.8946 24.5196 15 24.2652 15 24H17C17 24.2652 17.1054 24.5196 17.2929 24.7071C17.4804 24.8946 17.7348 25 18 25C18.2652 25 18.5196 24.8946 18.7071 24.7071C18.8946 24.5196 19 24.2652 19 24H21C21 24.2652 21.1054 24.5196 21.2929 24.7071C21.4804 24.8946 21.7348 25 22 25C22.2652 25 22.5196 24.8946 22.7071 24.7071C22.8946 24.5196 23 24.2652 23 24H25.5C25.7761 24 26 23.7761 26 23.5Z" fill="white"/>
</svg>

<svg xmlns="http://www.w3.org/2000/svg" width="32" height="32" fill="none"><path fill="#00A6ED" d="M2 6a4 4 0 0 1 4-4h20a4 4 0 0 1 4 4v20a4 4 0 0 1-4 4H6a4 4 0 0 1-4-4V6Z"/><path fill="#fff" d="M13.261 9a2.75 2.75 0 1 1 5.478 0h2.011a.25.25 0 0 1 .25.25v11.5a.25.25 0 0 1-.25.25h-9.5a.25.25 0 0 1-.25-.25V9.25a.25.25 0 0 1 .25-.25h2.011Zm1.007 0h3.464a1.75 1.75 0 1 0-3.465 0ZM8 9a1 1 0 0 0-1 1v10a1 1 0 0 0 1 1h1.75a.25.25 0 0 0 .25-.25V9.25A.25.25 0 0 0 9.75 9H8ZM22 20.75c0 .138.112.25.25.25H24a1 1 0 0 0 1-1V10a1 1 0 0 0-1-1h-1.75a.25.25 0 0 0-.25.25v11.5ZM26 23.5a.5.5 0 0 0-.5-.5h-19a.5.5 0 0 0 0 1H9a1 1 0 1 0 2 0h2a1 1 0 0 0 2 0h2a1 1 0 0 0 2 0h2a1 1 0 0 0 2 0h2.5a.5.5 0 0 0 .5-.5Z"/></svg>
